dist/svgs/unicons/line/border-vertical.svg

<svg xmlns="http://www.w3.org/2000/svg" viewBox="0 0 24 24"><path d="M3 3a1 1 0 101 1 1 1 0 00-1-1zm0 4a1 1 0 101 1 1 1 0 00-1-1zm16-2a1 1 0 10-1-1 1 1 0 001 1zM7 11a1 1 0 101 1 1 1 0 00-1-1zm0 8a1 1 0 101 1 1 1 0 00-1-1zM7 3a1 1 0 101 1 1 1 0 00-1-1zM3 15a1 1 0 101 1 1 1 0 00-1-1zm0-4a1 1 0 101 1 1 1 0 00-1-1zm0 8a1 1 0 101 1 1 1 0 00-1-1zm16-4a1 1 0 101 1 1 1 0 00-1-1zm0-4a1 1 0 101 1 1 1 0 00-1-1zm0 8a1 1 0 101 1 1 1 0 00-1-1zm0-12a1 1 0 101 1 1 1 0 00-1-1zm-4-4a1 1 0 101 1 1 1 0 00-1-1zm-4 0a1 1 0 00-1 1v16a1 1 0 002 0V4a1 1 0 00-1-1zm4 16a1 1 0 101 1 1 1 0 00-1-1zm0-8a1 1 0 101 1 1 1 0 00-1-1z"/></svg>

<svg xmlns="http://www.w3.org/2000/svg" viewBox="0 0 24 24"><path d="M3,3A1,1,0,1,0,4,4,1,1,0,0,0,3,3ZM3,7A1,1,0,1,0,4,8,1,1,0,0,0,3,7ZM19,5a1,1,0,1,0-1-1A1,1,0,0,0,19,5ZM7,11a1,1,0,1,0,1,1A1,1,0,0,0,7,11Zm0,8a1,1,0,1,0,1,1A1,1,0,0,0,7,19ZM7,3A1,1,0,1,0,8,4,1,1,0,0,0,7,3ZM3,15a1,1,0,1,0,1,1A1,1,0,0,0,3,15Zm0-4a1,1,0,1,0,1,1A1,1,0,0,0,3,11Zm0,8a1,1,0,1,0,1,1A1,1,0,0,0,3,19Zm16-4a1,1,0,1,0,1,1A1,1,0,0,0,19,15Zm0-4a1,1,0,1,0,1,1A1,1,0,0,0,19,11Zm0,8a1,1,0,1,0,1,1A1,1,0,0,0,19,19ZM19,7a1,1,0,1,0,1,1A1,1,0,0,0,19,7ZM15,3a1,1,0,1,0,1,1A1,1,0,0,0,15,3ZM11,3a1,1,0,0,0-1,1V20a1,1,0,0,0,2,0V4A1,1,0,0,0,11,3Zm4,16a1,1,0,1,0,1,1A1,1,0,0,0,15,19Zm0-8a1,1,0,1,0,1,1A1,1,0,0,0,15,11Z"/></svg>
